X:15
T:Vals
R:vals
Z:id:hn-vals-15
M:3/4
L:1/8
K:Gdor
D2|G2 G^F GA|B2 BA Bc|d2 dc de|f2 Pfe gf|d2 dc Ac|PB2 A2 G2|^FG A2 F2|D4 D2|
G2 G^F GA|B2 BA Bc|d2 dc de|f2 Pfe gf|d2 dc Ac|PB2 A2 G2|^FG A2 F2|G4:|
|:z2|d2 c2 B2|A3 A ^FA|c2 B2 A2|G3 G DG|B2 A2 ^F2|D2 A2 ^F2|G2 d2 ^c2|Pd4 z2|
d2 c2 B2|A3 A ^FA|c2 B2 A2|G3 G DG|B2 A2 ^F2|D2 A2 ^F2|G3 A G^F|G4:|
